build/assets/images/proyectos/logos/fichas/logo-macba.svg

<svg width="201" height="74" viewBox="0 0 201 74" fill="none" xmlns="http://www.w3.org/2000/svg">
<g clip-path="url(#clip0)">
<path d="M90.1536 42.4809C90.1536 40.4809 89.3536 39.2809 87.0536 39.2809H85.0536L84.9536 39.3809V45.6809L85.0536 45.7809H87.0536C89.3536 45.6809 90.1536 44.4809 90.1536 42.4809ZM88.8536 42.4809C88.8536 43.9809 88.3536 44.5809 87.0536 44.5809H86.2536L86.1536 44.4809V40.3809L86.2536 40.2809H87.0536C88.4536 40.2809 88.8536 40.9809 88.8536 42.4809ZM96.5536 45.5809V44.6809L96.4536 44.5809H93.3536L93.2536 44.4809V42.9809L93.3536 42.8809H96.2536L96.3536 42.7809V41.8809L96.2536 41.7809H93.3536L93.2536 41.6809V40.3809L93.3536 40.2809H96.4536L96.5536 40.1809V39.2809L96.4536 39.1809H92.1536L92.0536 39.2809V45.5809L92.1536 45.6809L96.5536 45.5809ZM106.854 43.9809C106.854 43.1809 106.454 42.5809 105.754 42.3809V42.2809C106.354 42.0809 106.654 41.5809 106.654 40.8809C106.654 39.6809 105.754 39.1809 104.854 39.1809H101.854L101.754 39.2809V45.5809L101.854 45.6809H104.954C105.854 45.6809 106.854 45.1809 106.854 43.9809ZM105.354 41.0809C105.354 41.4809 105.154 41.7809 104.654 41.7809H103.154L103.054 41.6809V40.3809L103.154 40.2809H104.654C105.154 40.2809 105.354 40.5809 105.354 41.0809ZM105.554 43.7809C105.554 44.3809 105.254 44.5809 104.654 44.5809H103.154L103.054 44.4809V42.9809L103.154 42.8809H104.654C105.254 42.8809 105.554 43.1809 105.554 43.7809ZM113.654 45.5809V44.6809L111.554 39.2809L111.454 39.1809H110.254L110.154 39.2809L108.054 44.6809V45.5809L108.154 45.6809H108.954L109.054 45.5809L109.554 44.3809L109.754 44.2809H112.054L112.254 44.3809L112.754 45.5809L112.854 45.6809L113.654 45.5809ZM111.654 43.0809L109.954 43.1809L109.854 43.0809L110.654 40.8809H110.754L111.654 43.0809ZM120.654 41.1809C120.654 39.8809 119.754 39.2809 118.454 39.2809H115.454L115.354 39.3809V45.6809L115.454 45.7809H116.554L116.654 45.6809V43.2809L116.754 43.1809H117.654L117.854 43.2809L119.754 45.6809H119.854H120.454L120.554 45.5809V44.6809L119.354 43.0809V42.9809C120.054 42.7809 120.654 42.1809 120.654 41.1809ZM119.354 41.1809C119.354 41.7809 118.954 41.9809 118.454 41.9809H116.654L116.554 41.8809V40.3809L116.654 40.2809H118.454C118.954 40.2809 119.354 40.4809 119.354 41.1809ZM125.254 44.6809C123.954 44.6809 123.354 43.7809 123.354 42.4809C123.354 41.1809 123.954 40.2809 125.254 40.2809C125.954 40.2809 126.454 40.5809 126.654 41.0809L126.754 41.1809H127.854L127.954 41.0809C127.754 39.8809 126.754 39.1809 125.254 39.1809C123.254 39.1809 122.154 40.5809 122.154 42.4809C122.154 44.3809 123.254 45.7809 125.254 45.7809C126.754 45.7809 127.754 45.0809 127.954 43.7809L127.854 43.6809H126.754L126.654 43.7809C126.454 44.3809 126.054 44.6809 125.254 44.6809ZM134.354 45.5809V44.6809L134.254 44.5809H131.154L131.054 44.4809V42.9809L131.154 42.8809H134.054L134.154 42.7809V41.8809L134.054 41.7809H131.154L131.054 41.6809V40.3809L131.154 40.2809H134.254L134.354 40.1809V39.2809L134.254 39.1809H129.854L129.754 39.2809V45.5809L129.854 45.6809L134.354 45.5809ZM140.754 45.5809V44.6809L140.654 44.5809H137.754L137.654 44.4809V39.2809L137.554 39.1809H136.454L136.354 39.2809V45.5809L136.454 45.6809L140.754 45.5809ZM146.754 42.4809C146.754 43.7809 146.154 44.6809 144.854 44.6809C143.654 44.6809 143.054 43.7809 143.054 42.4809C143.054 41.1809 143.654 40.2809 144.854 40.2809C146.054 40.2809 146.754 41.1809 146.754 42.4809ZM148.054 42.4809C148.054 40.5809 146.854 39.1809 144.854 39.1809C142.954 39.1809 141.754 40.5809 141.754 42.4809C141.754 44.3809 142.954 45.7809 144.854 45.7809C146.854 45.7809 148.054 44.3809 148.054 42.4809ZM149.854 39.2809V45.5809L149.954 45.6809H151.054L151.154 45.5809V41.2809H151.254L153.754 45.5809L153.954 45.6809H155.254L155.354 45.5809V39.2809L155.254 39.1809H154.154L154.054 39.2809V43.5809H153.954L151.454 39.2809L151.254 39.1809H149.954L149.854 39.2809ZM162.654 45.5809V44.6809L160.554 39.2809L160.454 39.1809H159.254L159.154 39.2809L157.054 44.6809V45.5809L157.154 45.6809H157.954L158.054 45.5809L158.554 44.3809L158.754 44.2809H161.054L161.254 44.3809L161.754 45.5809L161.854 45.6809L162.654 45.5809ZM160.654 43.0809L158.954 43.1809L158.854 43.0809L159.654 40.8809H159.754L160.654 43.0809Z" fill="white"/>
<path d="M90.1536 31.6809C90.1536 29.6809 89.3536 28.4809 87.0536 28.4809H85.0536L84.9536 28.5809V34.8809L85.0536 34.9809H87.0536C89.3536 34.8809 90.1536 33.6809 90.1536 31.6809ZM88.8536 31.6809C88.8536 33.1809 88.3536 33.7809 87.0536 33.7809H86.2536L86.1536 33.6809V29.5809L86.2536 29.4809H87.0536C88.4536 29.4809 88.8536 30.1809 88.8536 31.6809ZM93.3536 29.7809V28.4809L93.2536 28.3809H91.9536L91.8536 28.4809V29.6809L91.9536 29.7809H92.2536L92.3536 29.8809V29.9809L91.7536 30.8809V31.0809H92.3536L92.5536 30.9809L93.2536 30.0809L93.3536 29.7809ZM99.8536 34.7809V33.8809L97.7536 28.4809L97.6536 28.3809H96.4536L96.3536 28.4809L94.2536 33.8809V34.7809L94.3536 34.8809H95.1536L95.2536 34.7809L95.7536 33.5809L95.9536 33.4809H98.2536L98.4536 33.5809L98.9536 34.7809L99.0536 34.8809L99.8536 34.7809ZM97.9536 32.2809L96.2536 32.3809L96.1536 32.2809L96.9536 30.0809H97.0536L97.9536 32.2809ZM106.954 30.3809C106.954 29.0809 106.054 28.4809 104.754 28.4809H101.654L101.554 28.5809V34.8809L101.654 34.9809H102.754L102.854 34.8809V32.4809L102.954 32.3809H103.854L104.054 32.4809L105.954 34.8809L106.154 34.9809H106.754L106.854 34.8809V33.9809L105.654 32.3809V32.2809C106.254 31.9809 106.954 31.3809 106.954 30.3809ZM105.654 30.3809C105.654 30.9809 105.254 31.1809 104.754 31.1809H102.954L102.854 31.0809V29.5809L102.954 29.4809H104.754C105.254 29.4809 105.654 29.6809 105.654 30.3809ZM113.454 29.3809V28.4809L113.354 28.3809H108.154L108.054 28.4809V29.3809L108.154 29.4809H110.054L110.154 29.5809V34.7809L110.254 34.8809H111.354L111.454 34.7809V29.5809L111.554 29.4809L113.454 29.3809ZM120.854 33.8809C119.554 33.8809 119.054 32.9809 119.054 31.6809C119.054 30.3809 119.654 29.4809 120.854 29.4809C121.554 29.4809 122.054 29.7809 122.254 30.2809L122.354 30.3809H123.454L123.554 30.2809C123.354 29.0809 122.354 28.3809 120.854 28.3809C118.854 28.3809 117.754 29.7809 117.754 31.6809C117.754 33.5809 118.854 34.9809 120.854 34.9809C122.354 34.9809 123.354 34.2809 123.554 32.9809L123.454 32.8809H122.354L122.254 32.9809C122.054 33.5809 121.554 33.8809 120.854 33.8809ZM130.054 31.6809C130.054 32.9809 129.454 33.8809 128.154 33.8809C126.954 33.8809 126.254 32.9809 126.254 31.6809C126.254 30.3809 126.854 29.4809 128.154 29.4809C129.354 29.3809 130.054 30.3809 130.054 31.6809ZM131.254 31.6809C131.254 29.7809 130.054 28.3809 128.054 28.3809C126.154 28.3809 124.954 29.7809 124.954 31.6809C124.954 33.5809 126.154 34.9809 128.054 34.9809C130.154 34.9809 131.254 33.5809 131.254 31.6809ZM133.154 28.4809V34.7809L133.254 34.8809H134.354L134.454 34.7809V30.4809H134.554L137.054 34.7809L137.254 34.8809H138.554L138.654 34.7809V28.4809L138.554 28.3809H137.454L137.354 28.4809V32.7809H137.254L134.754 28.4809L134.554 28.3809H133.254L133.154 28.4809ZM145.654 29.3809V28.4809L145.554 28.3809H140.354L140.254 28.4809V29.3809L140.354 29.4809H142.254L142.354 29.5809V34.7809L142.454 34.8809H143.554L143.654 34.7809V29.5809L143.754 29.4809L145.654 29.3809ZM151.754 34.7809V33.8809L151.654 33.7809H148.654L148.554 33.6809V32.1809L148.654 32.0809H151.554L151.654 31.9809V31.0809L151.554 30.9809H148.654L148.554 30.8809V29.6809L148.654 29.5809H151.754L151.854 29.4809V28.5809L151.754 28.4809H147.454L147.354 28.5809V34.8809L147.454 34.9809L151.754 34.7809ZM160.754 34.7809V28.4809L160.654 28.3809H159.254L159.154 28.4809L157.254 32.9809H157.154L155.254 28.4809L155.154 28.3809H153.854L153.754 28.4809V34.7809L153.854 34.8809H154.954L155.054 34.7809V31.1809H155.154L156.654 34.7809L156.754 34.8809H157.754L157.854 34.7809L159.354 31.1809H159.454V34.7809L159.554 34.8809H160.654L160.754 34.7809ZM168.354 30.3809C168.354 29.0809 167.454 28.4809 166.154 28.4809H163.054L162.954 28.5809V34.8809L163.054 34.9809H164.154L164.254 34.8809V32.4809L164.354 32.3809H166.154C167.454 32.2809 168.354 31.6809 168.354 30.3809ZM167.054 30.3809C167.054 30.9809 166.654 31.1809 166.154 31.1809H164.354L164.254 31.0809V29.5809L164.354 29.4809H166.154C166.654 29.4809 167.054 29.6809 167.054 30.3809ZM174.654 31.6809C174.654 32.9809 174.054 33.8809 172.854 33.8809C171.654 33.8809 170.954 32.9809 170.954 31.6809C170.954 30.3809 171.554 29.4809 172.854 29.4809C173.954 29.3809 174.654 30.3809 174.654 31.6809ZM175.954 31.6809C175.954 29.7809 174.754 28.3809 172.854 28.3809C170.954 28.3809 169.654 29.7809 169.654 31.6809C169.654 33.5809 170.854 34.9809 172.854 34.9809C174.754 34.9809 175.954 33.5809 175.954 31.6809ZM183.154 30.3809C183.154 29.0809 182.254 28.4809 180.954 28.4809H177.854L177.754 28.5809V34.8809L177.854 34.9809H178.954L179.054 34.8809V32.4809L179.154 32.3809H180.054L180.254 32.4809L182.154 34.8809L182.354 34.9809H182.954L183.054 34.8809V33.9809L181.854 32.3809V32.2809C182.454 31.9809 183.154 31.3809 183.154 30.3809ZM181.854 30.3809C181.854 30.9809 181.454 31.1809 180.954 31.1809H179.154L179.054 31.0809V29.5809L179.154 29.4809H180.954C181.454 29.4809 181.854 29.6809 181.854 30.3809ZM190.054 34.7809V33.8809L187.954 28.4809L187.854 28.3809H186.654L186.554 28.4809L184.454 33.8809V34.7809L184.554 34.8809H185.354L185.454 34.7809L185.954 33.5809L186.154 33.4809H188.454L188.654 33.5809L189.154 34.7809L189.254 34.8809L190.054 34.7809ZM188.154 32.2809L186.454 32.3809L186.354 32.2809L187.154 30.0809H187.254L188.154 32.2809ZM191.754 28.4809V34.7809L191.854 34.8809H192.954L193.054 34.7809V30.4809H193.154L195.654 34.7809L195.854 34.8809H197.154L197.254 34.7809V28.4809L197.154 28.3809H196.054L195.954 28.4809V32.7809H195.854L193.354 28.4809L193.154 28.3809L191.754 28.4809ZM200.654 34.7809V28.4809L200.554 28.3809H199.454L199.354 28.4809V34.7809L199.454 34.8809L200.654 34.7809Z" fill="white"/>
<path d="M91.8535 23.981V17.681L91.7535 17.581H90.3535L90.2535 17.681L88.3535 22.181H88.2535L86.4535 17.681L86.3535 17.581H84.9535L84.8535 17.681V23.981L84.9535 24.081H86.0535L86.1535 23.981V20.381H86.2535L87.8535 23.981L87.9535 24.081H88.9535L89.0535 23.981L90.5535 20.381H90.6535V23.981L90.7535 24.081L91.8535 23.981ZM99.2535 17.681L98.0535 17.581L97.9535 17.681V21.581C97.9535 22.481 97.5535 23.081 96.6535 23.081C95.7535 23.081 95.3535 22.481 95.3535 21.581V17.681L95.2535 17.581H94.1535L94.0535 17.681V21.581C94.0535 23.281 94.9535 24.181 96.6535 24.181C98.3535 24.181 99.2535 23.281 99.2535 21.581V17.681V17.681ZM106.454 22.181C106.454 20.881 105.454 20.381 104.154 20.181C102.854 19.981 102.454 19.781 102.454 19.281C102.454 18.881 102.754 18.681 103.554 18.681C104.554 18.681 104.854 18.981 104.854 19.481L104.954 19.581H106.054L106.154 19.481C106.154 18.381 105.454 17.581 103.654 17.581C101.854 17.581 101.154 18.381 101.154 19.381C101.154 20.681 102.154 21.181 103.454 21.281C104.754 21.481 105.154 21.681 105.154 22.281C105.154 22.881 104.654 23.081 103.854 23.081C102.754 23.081 102.354 22.681 102.354 22.081L102.254 21.981H101.154L101.054 22.081C101.054 23.281 101.854 24.181 103.754 24.181C105.754 24.081 106.454 23.181 106.454 22.181ZM112.754 23.981V23.081L112.654 22.981H109.554L109.454 22.881V21.381L109.554 21.281H112.454L112.554 21.181V20.281L112.454 20.181H109.554L109.454 20.081V18.681L109.554 18.581H112.654L112.754 18.481V17.581L112.654 17.481H108.354L108.254 17.581V23.981L108.354 24.081L112.754 23.981ZM120.054 17.681L118.854 17.581L118.754 17.681V21.581C118.754 22.481 118.354 23.081 117.454 23.081C116.554 23.081 116.154 22.481 116.154 21.581V17.681L116.054 17.581H114.954L114.854 17.681V21.581C114.854 23.281 115.754 24.181 117.454 24.181C119.154 24.181 120.054 23.281 120.054 21.581V17.681V17.681Z" fill="white"/>
<path d="M64.7535 50.081H69.0535L69.3535 49.781L67.0535 43.681H66.7535L64.4535 49.781L64.7535 50.081ZM70.0535 53.081H63.7535L63.2535 53.381L61.9535 56.681L61.6535 56.881H59.3535L59.0535 56.681V54.181L64.8535 39.581L65.1535 39.381H68.4535L68.7535 39.581L74.3535 53.581V1.58101L74.0535 1.28101H1.25347L1.05347 1.38101V72.881L1.25347 73.181H74.0535L74.3535 72.881V56.881H72.0535L71.7535 56.681L70.4535 53.381L70.0535 53.081ZM43.3535 39.481L43.6535 39.281H51.7535C54.2535 39.281 56.7535 40.581 56.7535 43.781C56.7535 45.581 55.9535 47.081 54.2535 47.581V47.781C56.2535 48.281 57.2535 49.781 57.2535 52.081C57.2535 55.581 54.7535 56.881 52.2535 56.881H43.6535L43.3535 56.681V39.481ZM30.5535 34.981L30.2535 35.281H27.2535L27.0535 34.981V25.181H26.7535L22.7535 34.981L22.4535 35.281H19.6535L19.3535 34.981L15.3535 25.181H15.0535V34.981L14.8535 35.181H11.8535L11.5535 34.881V17.781L11.8535 17.581H15.6535L15.9535 17.781L20.9535 30.081H21.2535L26.3535 17.781L26.5535 17.581H30.3535L30.6535 17.781L30.5535 34.981ZM48.6535 34.981L48.3535 35.281H46.0535L45.8535 34.981L44.5535 31.681L44.0535 31.481H37.7535L37.2535 31.681L35.9535 34.981L35.7535 35.281H33.4535L33.1535 34.981V32.481L38.9535 17.881L39.2535 17.681H42.5535L42.8535 17.881L48.6535 32.481V34.981V34.981ZM58.7535 35.481C53.1535 35.481 50.1535 31.681 50.1535 26.381C50.1535 21.081 53.1535 17.281 58.7535 17.281C62.7535 17.281 65.5535 19.281 66.0535 22.581L65.8535 22.881H62.8535L62.6535 22.581C62.1535 21.081 60.8535 20.281 58.8535 20.281C55.3535 20.281 53.8535 22.781 53.8535 26.381C53.8535 29.981 55.3535 32.481 58.8535 32.481C60.8535 32.481 62.1535 31.681 62.6535 29.981L62.8535 29.681H65.8535L66.0535 29.981C65.5535 33.481 62.7535 35.481 58.7535 35.481ZM43.0535 28.381L43.3535 28.181L41.0535 22.081H40.8535L38.5535 28.181L38.8535 28.381H43.0535ZM47.1535 42.281L46.8535 42.481V45.981L47.1535 46.281H51.2535C52.7535 46.281 53.2535 45.281 53.2535 44.281C53.2535 42.981 52.7535 42.281 51.2535 42.281H47.1535ZM47.1535 49.281L46.8535 49.581V53.581L47.1535 53.781H51.2535C53.0535 53.781 53.7535 52.981 53.7535 51.481C53.7535 49.981 52.9535 49.181 51.2535 49.181H47.1535V49.281Z" fill="white"/>
</g>
<defs>
<clipPath id="clip0">
<rect width="200" height="73" fill="white" transform="translate(0.853516 0.680908)"/>
</clipPath>
</defs>
</svg>

<svg width="201" height="74" fill="none" xmlns="http://www.w3.org/2000/svg"><g clip-path="url(#clip0)" fill="#fff"><path d="M90.154 42.48c0-2-.8-3.2-3.1-3.2h-2l-.1.1v6.3l.1.1h2c2.3-.1 3.1-1.3 3.1-3.3zm-1.3 0c0 1.5-.5 2.1-1.8 2.1h-.8l-.1-.1v-4.1l.1-.1h.8c1.4 0 1.8.7 1.8 2.2zm7.7 3.1v-.9l-.1-.1h-3.1l-.1-.1v-1.5l.1-.1h2.9l.1-.1v-.9l-.1-.1h-2.9l-.1-.1v-1.3l.1-.1h3.1l.1-.1v-.9l-.1-.1h-4.3l-.1.1v6.3l.1.1 4.4-.1zm10.3-1.6c0-.8-.4-1.4-1.1-1.6v-.1c.6-.2.9-.7.9-1.4 0-1.2-.9-1.7-1.8-1.7h-3l-.1.1v6.3l.1.1h3.1c.9 0 1.9-.5 1.9-1.7zm-1.5-2.9c0 .4-.2.7-.7.7h-1.5l-.1-.1v-1.3l.1-.1h1.5c.5 0 .7.3.7.8zm.2 2.7c0 .6-.3.8-.9.8h-1.5l-.1-.1v-1.5l.1-.1h1.5c.6 0 .9.3.9.9zm8.1 1.8v-.9l-2.1-5.4-.1-.1h-1.2l-.1.1-2.1 5.4v.9l.1.1h.8l.1-.1.5-1.2.2-.1h2.3l.2.1.5 1.2.1.1.8-.1zm-2-2.5l-1.7.1-.1-.1.8-2.2h.1l.9 2.2zm9-1.9c0-1.3-.9-1.9-2.2-1.9h-3l-.1.1v6.3l.1.1h1.1l.1-.1v-2.4l.1-.1h.9l.2.1 1.9 2.4h.7l.1-.1v-.9l-1.2-1.6v-.1c.7-.2 1.3-.8 1.3-1.8zm-1.3 0c0 .6-.4.8-.9.8h-1.8l-.1-.1v-1.5l.1-.1h1.8c.5 0 .9.2.9.9zm5.9 3.5c-1.3 0-1.9-.9-1.9-2.2 0-1.3.6-2.2 1.9-2.2.7 0 1.2.3 1.4.8l.1.1h1.1l.1-.1c-.2-1.2-1.2-1.9-2.7-1.9-2 0-3.1 1.4-3.1 3.3s1.1 3.3 3.1 3.3c1.5 0 2.5-.7 2.7-2l-.1-.1h-1.1l-.1.1c-.2.6-.6.9-1.4.9zm9.1.9v-.9l-.1-.1h-3.1l-.1-.1v-1.5l.1-.1h2.9l.1-.1v-.9l-.1-.1h-2.9l-.1-.1v-1.3l.1-.1h3.1l.1-.1v-.9l-.1-.1h-4.4l-.1.1v6.3l.1.1 4.5-.1zm6.4 0v-.9l-.1-.1h-2.9l-.1-.1v-5.2l-.1-.1h-1.1l-.1.1v6.3l.1.1 4.3-.1zm6-3.1c0 1.3-.6 2.2-1.9 2.2-1.2 0-1.8-.9-1.8-2.2 0-1.3.6-2.2 1.8-2.2 1.2 0 1.9.9 1.9 2.2zm1.3 0c0-1.9-1.2-3.3-3.2-3.3-1.9 0-3.1 1.4-3.1 3.3s1.2 3.3 3.1 3.3c2 0 3.2-1.4 3.2-3.3zm1.8-3.2v6.3l.1.1h1.1l.1-.1v-4.3h.1l2.5 4.3.2.1h1.3l.1-.1v-6.3l-.1-.1h-1.1l-.1.1v4.3h-.1l-2.5-4.3-.2-.1h-1.3l-.1.1zm12.8 6.3v-.9l-2.1-5.4-.1-.1h-1.2l-.1.1-2.1 5.4v.9l.1.1h.8l.1-.1.5-1.2.2-.1h2.3l.2.1.5 1.2.1.1.8-.1zm-2-2.5l-1.7.1-.1-.1.8-2.2h.1l.9 2.2zm-70.5-11.4c0-2-.8-3.2-3.1-3.2h-2l-.1.1v6.3l.1.1h2c2.3-.1 3.1-1.3 3.1-3.3zm-1.3 0c0 1.5-.5 2.1-1.8 2.1h-.8l-.1-.1v-4.1l.1-.1h.8c1.4 0 1.8.7 1.8 2.2zm4.5-1.9v-1.3l-.1-.1h-1.3l-.1.1v1.2l.1.1h.3l.1.1v.1l-.6.9v.2h.6l.2-.1.7-.9.1-.3zm6.5 5v-.9l-2.1-5.4-.1-.1h-1.2l-.1.1-2.1 5.4v.9l.1.1h.8l.1-.1.5-1.2.2-.1h2.3l.2.1.5 1.2.1.1.8-.1zm-1.9-2.5l-1.7.1-.1-.1.8-2.2h.1l.9 2.2zm9-1.9c0-1.3-.9-1.9-2.2-1.9h-3.1l-.1.1v6.3l.1.1h1.1l.1-.1v-2.4l.1-.1h.9l.2.1 1.9 2.4.2.1h.6l.1-.1v-.9l-1.2-1.6v-.1c.6-.3 1.3-.9 1.3-1.9zm-1.3 0c0 .6-.4.8-.9.8h-1.8l-.1-.1v-1.5l.1-.1h1.8c.5 0 .9.2.9.9zm7.8-1v-.9l-.1-.1h-5.2l-.1.1v.9l.1.1h1.9l.1.1v5.2l.1.1h1.1l.1-.1v-5.2l.1-.1 1.9-.1zm7.4 4.5c-1.3 0-1.8-.9-1.8-2.2 0-1.3.6-2.2 1.8-2.2.7 0 1.2.3 1.4.8l.1.1h1.1l.1-.1c-.2-1.2-1.2-1.9-2.7-1.9-2 0-3.1 1.4-3.1 3.3s1.1 3.3 3.1 3.3c1.5 0 2.5-.7 2.7-2l-.1-.1h-1.1l-.1.1c-.2.6-.7.9-1.4.9zm9.2-2.2c0 1.3-.6 2.2-1.9 2.2-1.2 0-1.9-.9-1.9-2.2 0-1.3.6-2.2 1.9-2.2 1.2-.1 1.9.9 1.9 2.2zm1.2 0c0-1.9-1.2-3.3-3.2-3.3-1.9 0-3.1 1.4-3.1 3.3s1.2 3.3 3.1 3.3c2.1 0 3.2-1.4 3.2-3.3zm1.9-3.2v6.3l.1.1h1.1l.1-.1v-4.3h.1l2.5 4.3.2.1h1.3l.1-.1v-6.3l-.1-.1h-1.1l-.1.1v4.3h-.1l-2.5-4.3-.2-.1h-1.3l-.1.1zm12.5.9v-.9l-.1-.1h-5.2l-.1.1v.9l.1.1h1.9l.1.1v5.2l.1.1h1.1l.1-.1v-5.2l.1-.1 1.9-.1zm6.1 5.4v-.9l-.1-.1h-3l-.1-.1v-1.5l.1-.1h2.9l.1-.1v-.9l-.1-.1h-2.9l-.1-.1v-1.2l.1-.1h3.1l.1-.1v-.9l-.1-.1h-4.3l-.1.1v6.3l.1.1 4.3-.2zm9 0v-6.3l-.1-.1h-1.4l-.1.1-1.9 4.5h-.1l-1.9-4.5-.1-.1h-1.3l-.1.1v6.3l.1.1h1.1l.1-.1v-3.6h.1l1.5 3.6.1.1h1l.1-.1 1.5-3.6h.1v3.6l.1.1h1.1l.1-.1zm7.6-4.4c0-1.3-.9-1.9-2.2-1.9h-3.1l-.1.1v6.3l.1.1h1.1l.1-.1v-2.4l.1-.1h1.8c1.3-.1 2.2-.7 2.2-2zm-1.3 0c0 .6-.4.8-.9.8h-1.8l-.1-.1v-1.5l.1-.1h1.8c.5 0 .9.2.9.9zm7.6 1.3c0 1.3-.6 2.2-1.8 2.2-1.2 0-1.9-.9-1.9-2.2 0-1.3.6-2.2 1.9-2.2 1.1-.1 1.8.9 1.8 2.2zm1.3 0c0-1.9-1.2-3.3-3.1-3.3-1.9 0-3.2 1.4-3.2 3.3s1.2 3.3 3.2 3.3c1.9 0 3.1-1.4 3.1-3.3zm7.2-1.3c0-1.3-.9-1.9-2.2-1.9h-3.1l-.1.1v6.3l.1.1h1.1l.1-.1v-2.4l.1-.1h.9l.2.1 1.9 2.4.2.1h.6l.1-.1v-.9l-1.2-1.6v-.1c.6-.3 1.3-.9 1.3-1.9zm-1.3 0c0 .6-.4.8-.9.8h-1.8l-.1-.1v-1.5l.1-.1h1.8c.5 0 .9.2.9.9zm8.2 4.4v-.9l-2.1-5.4-.1-.1h-1.2l-.1.1-2.1 5.4v.9l.1.1h.8l.1-.1.5-1.2.2-.1h2.3l.2.1.5 1.2.1.1.8-.1zm-1.9-2.5l-1.7.1-.1-.1.8-2.2h.1l.9 2.2zm3.6-3.8v6.3l.1.1h1.1l.1-.1v-4.3h.1l2.5 4.3.2.1h1.3l.1-.1v-6.3l-.1-.1h-1.1l-.1.1v4.3h-.1l-2.5-4.3-.2-.1-1.4.1zm8.9 6.3v-6.3l-.1-.1h-1.1l-.1.1v6.3l.1.1 1.2-.1zM91.853 23.981v-6.3l-.1-.1h-1.4l-.1.1-1.9 4.5h-.1l-1.8-4.5-.1-.1h-1.4l-.1.1v6.3l.1.1h1.1l.1-.1v-3.6h.1l1.6 3.6.1.1h1l.1-.1 1.5-3.6h.1v3.6l.1.1 1.1-.1zm7.4-6.3l-1.2-.1-.1.1v3.9c0 .9-.4 1.5-1.3 1.5s-1.3-.6-1.3-1.5v-3.9l-.1-.1h-1.1l-.1.1v3.9c0 1.7.9 2.6 2.6 2.6 1.7 0 2.6-.9 2.6-2.6v-3.9zm7.201 4.5c0-1.3-1-1.8-2.3-2-1.3-.2-1.7-.4-1.7-.9 0-.4.3-.6 1.1-.6 1 0 1.3.3 1.3.8l.1.1h1.1l.1-.1c0-1.1-.7-1.9-2.5-1.9s-2.5.8-2.5 1.8c0 1.3 1 1.8 2.3 1.9 1.3.2 1.7.4 1.7 1s-.5.8-1.3.8c-1.1 0-1.5-.4-1.5-1l-.1-.1h-1.1l-.1.1c0 1.2.8 2.1 2.7 2.1 2-.1 2.7-1 2.7-2zm6.3 1.8v-.9l-.1-.1h-3.1l-.1-.1v-1.5l.1-.1h2.9l.1-.1v-.9l-.1-.1h-2.9l-.1-.1v-1.4l.1-.1h3.1l.1-.1v-.9l-.1-.1h-4.3l-.1.1v6.4l.1.1 4.4-.1zm7.3-6.3l-1.2-.1-.1.1v3.9c0 .9-.4 1.5-1.3 1.5s-1.3-.6-1.3-1.5v-3.9l-.1-.1h-1.1l-.1.1v3.9c0 1.7.9 2.6 2.6 2.6 1.7 0 2.6-.9 2.6-2.6v-3.9zm-55.3 32.4h4.3l.3-.3-2.3-6.1h-.3l-2.3 6.1.3.3zm5.3 3h-6.3l-.5.3-1.3 3.3-.3.2h-2.3l-.3-.2v-2.5l5.8-14.6.3-.2h3.3l.3.2 5.6 14v-52l-.3-.3h-72.8l-.2.1v71.5l.2.3h72.8l.3-.3v-16h-2.3l-.3-.2-1.3-3.3-.4-.3zm-26.7-13.6l.3-.2h8.1c2.5 0 5 1.3 5 4.5 0 1.8-.8 3.3-2.5 3.8v.2c2 .5 3 2 3 4.3 0 3.5-2.5 4.8-5 4.8h-8.6l-.3-.2v-17.2zm-12.8-4.5l-.3.3h-3l-.2-.3v-9.8h-.3l-4 9.8-.3.3h-2.8l-.3-.3-4-9.8h-.3v9.8l-.2.2h-3l-.3-.3v-17.1l.3-.2h3.8l.3.2 5 12.3h.3l5.1-12.3.2-.2h3.8l.3.2-.1 17.2zm18.1 0l-.3.3h-2.3l-.2-.3-1.3-3.3-.5-.2h-6.3l-.5.2-1.3 3.3-.2.3h-2.3l-.3-.3v-2.5l5.8-14.6.3-.2h3.3l.3.2 5.8 14.6v2.5zm10.1.5c-5.6 0-8.6-3.8-8.6-9.1s3-9.1 8.6-9.1c4 0 6.8 2 7.3 5.3l-.2.3h-3l-.2-.3c-.5-1.5-1.8-2.3-3.8-2.3-3.5 0-5 2.5-5 6.1 0 3.6 1.5 6.1 5 6.1 2 0 3.3-.8 3.8-2.5l.2-.3h3l.2.3c-.5 3.5-3.3 5.5-7.3 5.5zm-15.7-7.1l.3-.2-2.3-6.1h-.2l-2.3 6.1.3.2h4.2zm4.1 13.9l-.3.2v3.5l.3.3h4.1c1.5 0 2-1 2-2 0-1.3-.5-2-2-2h-4.1zm0 7l-.3.3v4l.3.2h4.1c1.8 0 2.5-.8 2.5-2.3 0-1.5-.8-2.3-2.5-2.3h-4.1v.1z"/></g><defs><clipPath id="clip0"><path fill="#fff" transform="translate(.854 .68)" d="M0 0h200v73H0z"/></clipPath></defs></svg>
